X:291
T: Muscatellerlied
N: A0335A
O: Europa, Mitteleuropa, Deutschland
N: Melodie von A0334 von Boehme in den Tripeltakt gesetzt.
R: Romanze, Ballade, Lied, Trinklied
M: 6/4
L: 1/4
K: F
C | F2FG2G | A2AG2
c | A2FG2E | F3F2
C | F2FG2G | A2AG2
c | A2FG2E | F3F2
A | c2cG2G | A2AG2
G | c2cG2G | A2AG2
c | c2AG2B | A2GF2

@@@ Tune index: 291
